X:1
T:Title
%%score { 1 | ( 2 3 ) }
L:1/8
M:3/4
K:Eb
V:1 treble nm="Grand Piano"
V:2 bass 
V:3 bass 
V:1
 z2 z2[Q:1/4=100] B2 | B4 c>B | G4 G>G | G2 A2 G2 | E4 E2 | [DF]3 [_DG] [=DA]2 | %6
 [DA]2 [EG]2 [DF]2 | G4 A2 | B4 [AB]>[AB] | [GB]4 [_G=A]>[=GB] | G2 A2 B2 | c2 e3 c | [GB]4 E>E | %13
 G4 G>G | [DB]4 [DF]>[DG] | E4 G>G | [DF]4 [EG]>[FA] | [FA]2 [EG]2 [DF]2 | [EG]2 [FA]2 [GB]2 | %19
 G4 G>G | [DF]4 [EG]>[FA] | [FA]2 [EG]2 [DF]2 | G4 A2 | B4 B2 | c3 [Ec] [Ec]2 | [Ec]2 [Ed]2 e2 | %26
 B4 c>B | G4 E>E | G4 G>G | [DB]4 [DF]>[DG] |[M:2/4] E4 |[M:1/4] B2 |[M:3/4] [DB]4 [DF]>[DF] | %33
 [DF]2 [EG]2 [FA]2 | [FA]2 [EG]2 [DF]2 | [EG]4 [FG]2 | [EG]4 [EG]>[EG] | [EG]2 [E_G]2 [E=G]2 | %38
 c2 B2 =A2 | [DB]4 [DB]2 | B4 c>B | G2 A2 B2 | c2 e3 c | [GB]4 E2 | G4 G>G | %45
 [B,DB]4 [A,DF]>[B,DG] |[M:2/4] [G,E]4 |] %47
V:2
 z2 z2 [E,G,E]2 | [E,G,E]4 [E,G,E]>[E,G,E] | [E,B,E]4 [E,B,E]>[E,B,E] | [E,B,E]2 [E,CE]2 [E,B,E]2 | %4
 [E,G,]4 [E,G,]2 | [B,,A,]3 [B,,G,] [B,,F,]2 | [B,,B,]2 [B,,B,]2 [B,,B,]2 | [E,B,E]4 [F,B,D]2 | %8
 [G,B,E]4 [F,D]2 | [E,E]4 [E,C]>[E,B,] | [E,B,E]2 [F,B,E]2[K:treble] [G,_DE]2 | %11
 [A,CE]2 [A,CA]3 [A,EA] | [E,E]4 [E,G,]>[E,G,] | [E,B,E]4 [E,B,E]>[E,B,E] | %14
 [B,,B,]4 [B,,A,]>[B,,B,] | [E,G,]4 E>E | [B,,B,]4 [B,,B,]>[B,,B,] | [B,,B,]2 [B,,B,]2 [B,,B,]2 | %18
 [E,B,]2 [E,B,]2 [E,B,]2 | [E,B,E]4 [E,B,E]>[E,B,E] | [B,,B,]4 [B,,B,]>[B,,B,] | %21
 [B,,B,]2 [B,,B,]2 [B,,B,]2 | [E,B,E]4 [F,B,D]2 | [G,B,E]4 [G,E]2 | [A,CE]3 [A,,A,] [A,,A,]2 | %25
 [A,,A,]2 [A,,B,]2 [A,,CE]2 | [E,G,E]4 [E,A,E]>[E,G,E] | [E,B,E]4 [E,G,]>[E,G,] | %28
 [E,B,E]4 [E,B,E]>[E,B,E] | [B,,B,]4 [B,,A,]>[B,,B,] |[M:2/4] [E,G,]4 |[M:1/4] [E,G,E]2 | %32
[M:3/4] [B,,B,]4 [B,,B,]>[B,,B,] | [B,,B,]2 [B,,B,]2 [B,,B,]2 | [B,,B,]2 [B,,B,]2 [B,,B,]2 | %35
 [E,B,]4 [D,=B,]2 | [C,C]4 [C,C]>[C,C] | [C,C]2 [C,C]2 [C,B,]2 | [F,=A,E]2 [F,B,D]2 [F,CE]2 | %39
 [B,,B,]4 [B,,A,]2 | [E,G,E]4 [E,A,E]>[E,G,E] | [E,B,E]2 [F,B,E]2[K:treble] [G,_DE]2 | %42
 [A,CE]2 [A,CA]3 [A,EA] | [E,E]4 [E,G,]2 | [E,B,E]4 [E,B,E]>[E,B,E] | B,,4 B,,>B,, |[M:2/4] E,4 |] %47
V:3
 x6 | x6 | x6 | x6 | x6 | x6 | x6 | x6 | x6 | x6 | x4[K:treble] x2 | x6 | x6 | x6 | x6 | %15
 z2 z2 [E,B,]2 | x6 | x6 | x6 | x6 | x6 | x6 | x6 | x6 | x6 | x6 | x6 | x6 | x6 | x6 |[M:2/4] x4 | %31
[M:1/4] x2 |[M:3/4] x6 | x6 | x6 | x6 | x6 | x6 | x6 | x6 | x6 | x4[K:treble] x2 | x6 | x6 | x6 | %45
 x6 |[M:2/4] x4 |] %47

